X:73
T:Farewell to Bachelorhood
C:Jansen Wendell 
R:reel
M:C
K:G
EG|:"Am"A2AB cBAG|E2A2 ABcd|"C"e2a2"G"g2d2|"Em"e3g e2ef|
"C"gfga "G"gedB|"Em"G2B2d2gd|"Em"e2eg "G"edBG|1"Am"A3BA2EG:|2"Am"A3BA3z||
%%vskip .25in
|:"Am"e2a2a2ga|"Em"abbag2d2|"Am"e2a2g2d2|"Em"e3ge2ef|
"C"g2ga "G"gedB|"Em"G2B2d2gd|"Em"e2eg "G"edBG|1"Am"A3BA3z:|2"Am"A3BA2|]
